Papirus-GTK/24x24/apps/cs-panel.svg

<svg height="24" viewBox="0 0 48 48.000001" width="24" xmlns="http://www.w3.org/2000/svg"><path d="m3 3c-.554 0-1 .446-1 1v1 14h20v-14-1c0-.554-.446-1-1-1z" fill="#4ab3e4" transform="scale(2)"/><path d="m6 42c-1.108 0-2-.892-2-2v-2h40v2c0 1.108-.892 2-2 2z" fill="#4d4d4d"/><path d="m6 6c-1.108 0-2 .892-2 2v1c0-1.108.892-2 2-2h36c1.108 0 2 .892 2 2v-1c0-1.108-.892-2-2-2z" fill="#fff" opacity=".1"/><path d="m2 19.5v.5c0 .554.446 1 1 1h18c .554 0 1-.446 1-1v-.5c0 .554-.446 1-1 1h-18c-.554 0-1-.446-1-1z" opacity=".3" transform="scale(2)"/></svg>

<?xml version="1.0" encoding="UTF-8" standalone="no"?>
<!-- Created with Inkscape (http://www.inkscape.org/) -->

<svg
   xmlns:dc="http://purl.org/dc/elements/1.1/"
   xmlns:cc="http://creativecommons.org/ns#"
   xmlns:rdf="http://www.w3.org/1999/02/22-rdf-syntax-ns#"
   xmlns:svg="http://www.w3.org/2000/svg"
   xmlns="http://www.w3.org/2000/svg"
   xmlns:sodipodi="http://sodipodi.sourceforge.net/DTD/sodipodi-0.dtd"
   xmlns:inkscape="http://www.inkscape.org/namespaces/inkscape"
   id="svg4222"
   height="24"
   width="24"
   version="1.1"
   viewBox="0 0 48 48.000001"
   inkscape:version="0.91 r13725"
   sodipodi:docname="cs-panel.svg">
  <defs
     id="defs10" />
  <sodipodi:namedview
     pagecolor="#ffffff"
     bordercolor="#666666"
     borderopacity="1"
     objecttolerance="10"
     gridtolerance="10"
     guidetolerance="10"
     inkscape:pageopacity="0"
     inkscape:pageshadow="2"
     inkscape:window-width="1600"
     inkscape:window-height="843"
     id="namedview8"
     showgrid="false"
     inkscape:zoom="13.12"
     inkscape:cx="1.1378732"
     inkscape:cy="12"
     inkscape:window-x="0"
     inkscape:window-y="0"
     inkscape:window-maximized="1"
     inkscape:current-layer="svg4222" />
  <metadata
     id="metadata4227">
    <rdf:RDF>
      <cc:Work
         rdf:about="">
        <dc:format>image/svg+xml</dc:format>
        <dc:type
           rdf:resource="http://purl.org/dc/dcmitype/StillImage" />
        <dc:title />
      </cc:Work>
    </rdf:RDF>
  </metadata>
  <path
     style="fill:#4ab3e4"
     d="M 3 3 C 2.446 3 2 3.446 2 4 L 2 5 L 2 19 L 22 19 L 22 5 L 22 4 C 22 3.446 21.554 3 21 3 L 3 3 z "
     transform="scale(2,2)"
     id="rect4203" />
  <path
     style="fill:#4d4d4d"
     inkscape:connector-curvature="0"
     d="M 6,42 C 4.892,42 4,41.108 4,40 l 0,-2 40,0 0,2 c 0,1.108 -0.892,2 -2,2 z"
     id="rect3328" />
  <path
     style="opacity:0.1;fill:#ffffff"
     inkscape:connector-curvature="0"
     d="M 6,6 C 4.892,6 4,6.892 4,8 L 4,9 C 4,7.892 4.892,7 6,7 l 36,0 c 1.108,0 2,0.892 2,2 L 44,8 C 44,6.892 43.108,6 42,6 Z"
     id="path3345" />
  <path
     style="fill:#000000;fill-opacity:1;opacity:0.3"
     d="M 2 19.5 L 2 20 C 2 20.554 2.446 21 3 21 L 21 21 C 21.554 21 22 20.554 22 20 L 22 19.5 C 22 20.054 21.554 20.5 21 20.5 L 3 20.5 C 2.446 20.5 2 20.054 2 19.5 z "
     transform="scale(2,2)"
     id="path4141" />
</svg>
